src/assets/icons/img_alarm_confirmed.svg

<svg width="32" height="32" viewBox="0 0 32 32" fill="none" xmlns="http://www.w3.org/2000/svg">
<rect width="32" height="32" fill="#FFCC4D"/>
<g clip-path="url(#clip0_885_2668)">
<path d="M12.4593 10.16C12.3971 10.2223 12.3499 10.2973 12.3104 10.3795L12.306 10.375L6.07489 24.4117L6.081 24.4178C5.96545 24.6417 6.15878 25.0973 6.55489 25.4939C6.951 25.89 7.40656 26.0834 7.63045 25.9678L7.636 25.9734L21.6727 19.7417L21.6682 19.7367C21.7499 19.6978 21.8249 19.6506 21.8877 19.5873C22.7554 18.7195 21.3482 15.9056 18.7454 13.3023C16.1416 10.6989 13.3277 9.29226 12.4593 10.16Z" fill="#DD2E44"/>
<path d="M13.2227 12.6666L6.23156 24.0588L6.07489 24.4116L6.081 24.4177C5.96545 24.6416 6.15878 25.0972 6.55489 25.4938C6.68378 25.6227 6.81767 25.7205 6.94878 25.8033L15.4449 15.4444L13.2227 12.6666Z" fill="#EA596E"/>
<path d="M18.7842 13.2589C21.3786 15.8545 22.8192 18.6211 22.0003 19.4389C21.1819 20.2578 18.4153 18.8178 15.8192 16.2234C13.2242 13.6278 11.7842 10.86 12.6025 10.0417C13.4214 9.22336 16.188 10.6634 18.7842 13.2589Z" fill="#A0041E"/>
<path d="M16.3274 13.5605C16.2168 13.65 16.0724 13.6966 15.9196 13.68C15.4374 13.6278 15.0318 13.46 14.7479 13.195C14.4474 12.9144 14.299 12.5378 14.3396 12.1605C14.4107 11.4983 15.0751 10.8905 16.2079 11.0128C16.6485 11.06 16.8451 10.9183 16.8518 10.8505C16.8596 10.7833 16.6979 10.6028 16.2574 10.555C15.7751 10.5028 15.3696 10.335 15.0851 10.07C14.7846 9.78942 14.6357 9.41275 14.6768 9.03553C14.749 8.37331 15.4129 7.76553 16.5446 7.88831C16.8657 7.92275 17.0351 7.85664 17.1068 7.81386C17.164 7.77886 17.1868 7.74553 17.189 7.72609C17.1957 7.65886 17.0363 7.47831 16.5946 7.43053C16.2896 7.3972 16.0685 7.12386 16.1024 6.81831C16.1351 6.51331 16.4079 6.29275 16.714 6.32609C17.8457 6.44775 18.3657 7.18275 18.294 7.84553C18.2218 8.50886 17.5579 9.11553 16.4251 8.99386C16.104 8.95886 15.9363 9.02553 15.864 9.06831C15.8068 9.10275 15.7835 9.13664 15.7813 9.15553C15.774 9.22331 15.9346 9.40331 16.3763 9.45109C17.5079 9.57331 18.0279 10.3078 17.9563 10.9705C17.8846 11.6328 17.2207 12.2405 16.0885 12.1178C15.7674 12.0833 15.5985 12.15 15.5263 12.1922C15.4685 12.2278 15.4463 12.2611 15.444 12.28C15.4368 12.3472 15.5974 12.5278 16.0385 12.5755C16.3429 12.6089 16.5646 12.8828 16.5307 13.1878C16.5151 13.34 16.4379 13.4716 16.3274 13.5605Z" fill="#AA8DD8"/>
<path d="M23.0338 18.6983C24.1299 18.3889 24.886 18.8778 25.066 19.5195C25.246 20.1606 24.856 20.9722 23.7604 21.2806C23.3326 21.4006 23.2043 21.605 23.2215 21.67C23.2404 21.7356 23.4576 21.8433 23.8843 21.7228C24.9799 21.4145 25.736 21.9033 25.916 22.5445C26.0971 23.1861 25.706 23.9967 24.6099 24.3056C24.1826 24.4256 24.0538 24.6306 24.0726 24.6956C24.091 24.7606 24.3076 24.8683 24.7349 24.7483C25.0293 24.6656 25.3371 24.8372 25.4199 25.1322C25.5021 25.4278 25.3304 25.7345 25.0349 25.8178C23.9399 26.1261 23.1832 25.6383 23.0021 24.9961C22.8221 24.355 23.2126 23.5445 24.3093 23.2356C24.7371 23.115 24.8654 22.9111 24.8465 22.8456C24.8288 22.7806 24.6121 22.6722 24.1854 22.7922C23.0888 23.1011 22.3332 22.6133 22.1526 21.9706C21.9721 21.3295 22.3626 20.5189 23.4588 20.2095C23.8854 20.09 24.0138 19.8845 23.996 19.82C23.9771 19.7545 23.761 19.6467 23.3338 19.7667C23.0382 19.85 22.7321 19.6778 22.6488 19.3828C22.566 19.0883 22.7382 18.7817 23.0338 18.6983Z" fill="#77B255"/>
<path d="M18.7787 17.2C18.6153 17.2 18.4542 17.1283 18.3442 16.9916C18.1526 16.7516 18.192 16.4022 18.4309 16.2105C18.552 16.1133 21.4409 13.8444 25.5237 14.4283C25.8276 14.4716 26.0387 14.7528 25.9953 15.0566C25.952 15.36 25.6731 15.5733 25.3665 15.5278C21.7592 15.0155 19.1515 17.0578 19.1259 17.0783C19.0226 17.1605 18.9003 17.2 18.7787 17.2Z" fill="#AA8DD8"/>
<path d="M9.19708 14.8889C9.14431 14.8889 9.09042 14.8812 9.03708 14.8656C8.7432 14.7773 8.57653 14.4678 8.66486 14.1739C9.29431 12.0778 9.86486 8.73283 9.16375 7.86061C9.08542 7.76172 8.96708 7.66449 8.69597 7.68505C8.17486 7.72505 8.22431 8.82449 8.22486 8.83561C8.2482 9.14172 8.0182 9.40838 7.71264 9.43116C7.40208 9.45005 7.13986 9.22449 7.11708 8.91838C7.05986 8.15227 7.2982 6.67672 8.61264 6.57727C9.19931 6.53283 9.68653 6.73672 10.0304 7.16449C11.3476 8.80394 10.0104 13.5567 9.72931 14.4934C9.65708 14.7339 9.43597 14.8889 9.19708 14.8889Z" fill="#77B255"/>
<path d="M20.1663 12.1111C20.6266 12.1111 20.9997 11.738 20.9997 11.2778C20.9997 10.8176 20.6266 10.4445 20.1663 10.4445C19.7061 10.4445 19.333 10.8176 19.333 11.2778C19.333 11.738 19.7061 12.1111 20.1663 12.1111Z" fill="#5C913B"/>
<path d="M7.11111 17.1111C7.72476 17.1111 8.22222 16.6137 8.22222 16C8.22222 15.3864 7.72476 14.8889 7.11111 14.8889C6.49746 14.8889 6 15.3864 6 16C6 16.6137 6.49746 17.1111 7.11111 17.1111Z" fill="#9266CC"/>
<path d="M24.056 17.6667C24.5162 17.6667 24.8893 17.2936 24.8893 16.8333C24.8893 16.3731 24.5162 16 24.056 16C23.5958 16 23.2227 16.3731 23.2227 16.8333C23.2227 17.2936 23.5958 17.6667 24.056 17.6667Z" fill="#5C913B"/>
<path d="M19.056 24.3333C19.5162 24.3333 19.8893 23.9602 19.8893 23.5C19.8893 23.0397 19.5162 22.6666 19.056 22.6666C18.5958 22.6666 18.2227 23.0397 18.2227 23.5C18.2227 23.9602 18.5958 24.3333 19.056 24.3333Z" fill="#5C913B"/>
<path d="M21.5554 9.33331C22.1691 9.33331 22.6666 8.83584 22.6666 8.22219C22.6666 7.60855 22.1691 7.11108 21.5554 7.11108C20.9418 7.11108 20.4443 7.60855 20.4443 8.22219C20.4443 8.83584 20.9418 9.33331 21.5554 9.33331Z" fill="#F04E4E"/>
<path d="M24.056 11.5556C24.5162 11.5556 24.8893 11.1825 24.8893 10.7222C24.8893 10.262 24.5162 9.88892 24.056 9.88892C23.5958 9.88892 23.2227 10.262 23.2227 10.7222C23.2227 11.1825 23.5958 11.5556 24.056 11.5556Z" fill="#F04E4E"/>
<path d="M22.389 13.7778C22.8492 13.7778 23.2223 13.4047 23.2223 12.9444C23.2223 12.4842 22.8492 12.1111 22.389 12.1111C21.9288 12.1111 21.5557 12.4842 21.5557 12.9444C21.5557 13.4047 21.9288 13.7778 22.389 13.7778Z" fill="#F04E4E"/>
<path d="M10.1663 19.8888C10.6266 19.8888 10.9997 19.5157 10.9997 19.0555C10.9997 18.5953 10.6266 18.2222 10.1663 18.2222C9.7061 18.2222 9.33301 18.5953 9.33301 19.0555C9.33301 19.5157 9.7061 19.8888 10.1663 19.8888Z" fill="#499DDF"/>
</g>
<defs>
<clipPath id="clip0_885_2668">
<rect width="20" height="20" fill="white" transform="translate(6 6)"/>
</clipPath>
</defs>
</svg>

<svg width="32" height="32" fill="none" xmlns="http://www.w3.org/2000/svg"><path fill="#FFCC4D" d="M0 0h32v32H0z"/><g clip-path="url(#prefix__clip0_885_2668)"><path d="M12.46 10.16a.788.788 0 00-.15.22l-.004-.005-6.231 14.037.006.006c-.116.224.078.68.474 1.076.396.396.852.59 1.075.474l.006.005 14.037-6.231-.005-.005a.769.769 0 00.22-.15c.867-.867-.54-3.681-3.143-6.285-2.603-2.603-5.417-4.01-6.286-3.142z" fill="#DD2E44"/><path d="M13.223 12.667L6.232 24.059l-.157.353.006.006c-.116.224.078.68.474 1.076.129.129.263.227.394.31l8.496-10.36-2.222-2.777z" fill="#EA596E"/><path d="M18.784 13.259c2.595 2.595 4.035 5.362 3.216 6.18-.818.819-3.585-.621-6.18-3.216-2.596-2.595-4.036-5.363-3.218-6.181.82-.819 3.586.621 6.182 3.217z" fill="#A0041E"/><path d="M16.327 13.56a.55.55 0 01-.407.12c-.483-.052-.888-.22-1.172-.485-.3-.28-.449-.657-.408-1.034.07-.663.735-1.27 1.868-1.148.44.047.637-.095.644-.162.008-.068-.154-.248-.595-.296-.482-.052-.887-.22-1.172-.485-.3-.28-.45-.657-.408-1.034.072-.663.736-1.27 1.868-1.148.32.035.49-.031.562-.074.057-.035.08-.068.082-.088.007-.067-.153-.248-.594-.295a.555.555 0 11.119-1.105c1.132.122 1.652.857 1.58 1.52-.072.663-.736 1.27-1.869 1.148-.321-.035-.489.032-.561.074-.057.035-.08.069-.083.088-.007.067.154.247.595.295 1.132.122 1.652.857 1.58 1.52-.071.662-.735 1.27-1.867 1.147-.322-.035-.49.032-.563.074-.057.036-.08.07-.082.088-.007.067.153.248.594.296a.556.556 0 01.29.984z" fill="#AA8DD8"/><path d="M23.034 18.698c1.096-.31 1.852.18 2.032.822.18.64-.21 1.452-1.306 1.76-.427.12-.556.325-.539.39.02.066.237.173.663.053 1.096-.308 1.852.18 2.032.822.181.641-.21 1.452-1.306 1.76-.427.12-.556.326-.537.39.018.066.235.173.662.053a.556.556 0 01.3 1.07c-1.095.308-1.852-.18-2.033-.822-.18-.641.21-1.451 1.307-1.76.428-.121.556-.325.537-.39-.017-.065-.234-.174-.66-.054-1.097.31-1.853-.179-2.033-.821-.18-.642.21-1.452 1.306-1.762.426-.119.555-.325.537-.389-.019-.066-.235-.173-.662-.053a.555.555 0 11-.3-1.069z" fill="#77B255"/><path d="M18.779 17.2a.556.556 0 01-.348-.99c.121-.097 3.01-2.366 7.093-1.782a.555.555 0 11-.158 1.1c-3.607-.513-6.215 1.53-6.24 1.55a.555.555 0 01-.347.122z" fill="#AA8DD8"/><path d="M9.197 14.889a.555.555 0 01-.532-.715c.63-2.096 1.2-5.441.499-6.313-.079-.1-.197-.197-.468-.176-.521.04-.472 1.14-.471 1.15a.555.555 0 11-1.108.083c-.057-.766.181-2.241 1.496-2.34.586-.045 1.074.159 1.417.586 1.318 1.64-.02 6.393-.3 7.33a.556.556 0 01-.533.395z" fill="#77B255"/><path d="M20.166 12.111a.833.833 0 100-1.667.833.833 0 000 1.667z" fill="#5C913B"/><path d="M7.111 17.111a1.111 1.111 0 100-2.222 1.111 1.111 0 000 2.222z" fill="#9266CC"/><path d="M24.056 17.667a.833.833 0 100-1.667.833.833 0 000 1.667zM19.056 24.333a.833.833 0 100-1.666.833.833 0 000 1.666z" fill="#5C913B"/><path d="M21.555 9.333a1.111 1.111 0 100-2.222 1.111 1.111 0 000 2.222zM24.056 11.556a.833.833 0 100-1.667.833.833 0 000 1.667zM22.389 13.778a.833.833 0 100-1.667.833.833 0 000 1.667z" fill="#F04E4E"/><path d="M10.166 19.889a.833.833 0 100-1.667.833.833 0 000 1.667z" fill="#499DDF"/></g><defs><clipPath id="prefix__clip0_885_2668"><path fill="#fff" transform="translate(6 6)" d="M0 0h20v20H0z"/></clipPath></defs></svg>
